svgs/light/snowflake.svg

<svg xmlns="http://www.w3.org/2000/svg" viewBox="0 0 512 512"><!--! Font Awesome Pro 6.0.0-alpha3 by @fontawesome - https://fontawesome.com License - https://fontawesome.com/license (Commercial License) --><path d="M477.8 384c-2.969 5.125-8.27 8-13.8 8c-2.719 0-5.453-.6875-7.984-2.156l-63.61-36.7l13.44 50.14c2.295 8.562-2.781 17.31-11.31 19.62c-1.391 .3438-2.781 .5313-4.156 .5313c-7.062 0-13.52-4.719-15.44-11.84l-21.72-81.06L272 283.7v93.69l59.31 59.31c6.25 6.25 6.25 16.38 0 22.62C328.2 462.4 324.1 464 319.1 464s-8.188-1.562-11.31-4.688L272 422.6V496c0 8.844-7.156 16-16 16s-16-7.156-16-16v-73.38l-36.69 36.69c-6.25 6.25-16.38 6.25-22.62 0s-6.25-16.38 0-22.62L240 377.4V283.7l-81.2 46.85l-21.72 81.06c-1.922 7.125-8.375 11.84-15.44 11.84c-1.375 0-2.766-.1875-4.156-.5313c-8.531-2.312-13.61-11.06-11.31-19.62l13.44-50.14l-63.61 36.7C53.49 391.3 50.74 392 48.02 392c-5.529 0-10.83-2.875-13.8-8c-4.422-7.656-1.871-17.44 5.785-21.84l63.6-36.7L53.44 312C44.91 309.7 39.85 300.1 42.13 292.4S53.26 279 61.72 281.1L142.8 302.8L224 256L142.8 209.2L61.72 230.9C60.33 231.3 58.94 231.4 57.57 231.4c-7.062 0-13.53-4.719-15.44-11.88C39.85 211 44.91 202.3 53.44 199.1l50.17-13.43L40.01 149.8C32.35 145.4 29.8 135.7 34.22 128c4.406-7.656 14.06-10.34 21.78-5.844l63.61 36.7l-13.44-50.14C103.9 100.2 108.1 91.41 117.5 89.09C126 87 134.8 91.91 137.1 100.4l21.72 81.06L240 228.3V134.6L180.7 75.31c-6.25-6.25-6.25-16.38 0-22.62s16.38-6.25 22.62 0L240 89.38V16C240 7.156 247.2 0 256 0s16 7.156 16 16v73.38l36.69-36.69c6.25-6.25 16.38-6.25 22.62 0s6.25 16.38 0 22.62L272 134.6v93.69l81.2-46.85l21.72-81.06c2.297-8.5 11.14-13.38 19.59-11.31c8.531 2.312 13.61 11.06 11.31 19.62l-13.44 50.14l63.61-36.7C463.6 117.7 473.3 120.3 477.8 128c4.422 7.656 1.871 17.44-5.785 21.84L408.4 186.5l50.17 13.43c8.529 2.312 13.59 11.06 11.31 19.59c-1.906 7.156-8.373 11.88-15.44 11.88c-1.375 0-2.766-.1875-4.156-.5313L369.2 209.2L287.1 256l81.18 46.84l81.1-21.74c8.531-2.125 17.33 2.812 19.59 11.34c2.281 8.531-2.781 17.28-11.31 19.59l-50.17 13.43l63.6 36.7C479.6 366.6 482.2 376.3 477.8 384z"/></svg>

<svg xmlns="http://www.w3.org/2000/svg" viewBox="0 0 512 512"><!-- Font Awesome Pro 6.0.0-alpha2 by @fontawesome - https://fontawesome.com License - https://fontawesome.com/license (Commercial License) --><path d="M477.851 384C474.882 389.125 469.507 392 463.978 392C461.259 392 458.525 391.312 455.994 389.844L392.38 353.143L405.824 403.281C408.119 411.844 403.042 420.594 394.511 422.906C393.121 423.25 391.73 423.438 390.355 423.438C383.292 423.438 376.839 418.719 374.917 411.594L353.195 330.535L271.999 283.689V377.375L331.31 436.687C337.56 442.937 337.56 453.062 331.31 459.312C328.185 462.438 324.091 464 319.997 464S311.81 462.438 308.685 459.312L271.999 422.625V496C271.999 504.844 264.843 512 255.999 512S239.999 504.844 239.999 496V422.625L203.314 459.312C197.064 465.562 186.939 465.562 180.689 459.312S174.439 442.937 180.689 436.688L239.999 377.375V283.689L158.804 330.535L137.081 411.594C135.16 418.719 128.706 423.438 121.644 423.438C120.269 423.438 118.878 423.25 117.488 422.906C108.956 420.594 103.88 411.844 106.175 403.281L119.619 353.143L56.005 389.844C53.49 391.312 50.74 392 48.021 392C42.492 392 37.117 389.125 34.148 384C29.726 376.344 32.351 366.562 40.007 362.156L103.611 325.461L53.443 312.031C44.914 309.719 39.851 300.969 42.132 292.438S53.255 279 61.724 281.094L142.828 302.836L224.005 256L142.828 209.164L61.724 230.906C60.333 231.25 58.943 231.438 57.568 231.438C50.505 231.438 44.039 226.719 42.132 219.562C39.851 211.031 44.914 202.281 53.443 199.969L103.611 186.539L40.007 149.844C32.351 145.438 29.726 135.656 34.148 128C38.554 120.344 48.287 117.656 56.005 122.156L119.619 158.857L106.175 108.719C103.88 100.156 108.956 91.406 117.488 89.094C126.003 87 134.785 91.906 137.081 100.406L158.804 181.465L239.999 228.311V134.625L180.689 75.312C174.439 69.062 174.439 58.937 180.689 52.688S197.064 46.438 203.314 52.688L239.999 89.375V16C239.999 7.156 247.156 0 255.999 0S271.999 7.156 271.999 16V89.375L308.685 52.688C314.935 46.438 325.06 46.438 331.31 52.688S337.56 69.063 331.31 75.312L271.999 134.625V228.311L353.195 181.465L374.917 100.406C377.214 91.906 386.058 87.031 394.511 89.094C403.042 91.406 408.119 100.156 405.824 108.719L392.38 158.857L455.994 122.156C463.619 117.656 473.414 120.344 477.851 128C482.273 135.656 479.648 145.438 471.992 149.844L408.388 186.539L458.556 199.969C467.085 202.281 472.148 211.031 469.867 219.562C467.96 226.719 461.494 231.438 454.431 231.438C453.056 231.438 451.665 231.25 450.275 230.906L369.171 209.164L287.994 256L369.171 302.836L450.275 281.094C458.806 278.969 467.601 283.906 469.867 292.437C472.148 300.969 467.085 309.719 458.556 312.031L408.388 325.461L471.992 362.156C479.648 366.562 482.273 376.344 477.851 384Z"/></svg>
